X:22
T:Pigeon on the Gate
M:4/4
K:EDor
GA|BEEE BEdE|BEEE dBAF|D2 FD ADFD|DEFA BAFA|
BEEE BEdE|BEEE dBAF|D2 FA dfec|dBAF E2 FA ::
Beed efed|Bdef gfed|BAFA d2 dB|AF F2 DEFA|
Beed efed|Bdef g2 fg|afge fdec|dBAF E2 :|
